packages/ui/public/icons/subscription-pass.svg

<svg width="95" height="95" viewBox="0 0 95 95" fill="none" xmlns="http://www.w3.org/2000/svg">
<path opacity="0.15" fill-rule="evenodd" clip-rule="evenodd" d="M48.5489 2.1875C74.1759 2.1875 94.9505 22.962 94.9505 48.5886C94.9505 74.215 74.1759 94.989 48.5489 94.989C22.9219 94.989 2.14722 74.2152 2.14722 48.5886C2.14722 22.962 22.9217 2.1875 48.5489 2.1875Z" fill="black"/>
<path fill-rule="evenodd" clip-rule="evenodd" d="M47.5532 5.4397C70.7281 5.4397 89.5157 24.2265 89.5157 47.4011C89.5157 70.5758 70.7283 89.3622 47.5532 89.3622C24.378 89.3622 5.59082 70.5756 5.59082 47.4011C5.59082 24.2267 24.378 5.4397 47.5532 5.4397Z" fill="#812265"/>
<path opacity="0.1" fill-rule="evenodd" clip-rule="evenodd" d="M49.7561 7.68851C26.875 7.68851 8.3267 26.2368 8.3267 49.1173C8.3267 62.5876 14.7598 74.5522 24.7176 82.1186C13.2209 74.6339 5.61328 61.6774 5.61328 46.9367C5.61328 23.7621 24.4002 4.9751 47.5757 4.9751C62.3173 4.9751 75.2747 12.5833 82.7593 24.0804C75.1926 14.1224 63.2278 7.68851 49.7561 7.68851Z" fill="white"/>
<path fill-rule="evenodd" clip-rule="evenodd" d="M47.3748 1C21.7478 1 0.973145 21.7745 0.973145 47.4011C0.973145 73.0275 21.7478 93.8017 47.3748 93.8017C73.0018 93.8017 93.7765 73.0275 93.7765 47.4011C93.7765 21.7745 73.0018 1 47.3748 1ZM47.3748 88.523C24.663 88.523 6.2519 70.1121 6.2519 47.4009C6.2519 24.6899 24.663 6.27875 47.3748 6.27875C70.0862 6.27875 88.4975 24.6899 88.4975 47.4009C88.4975 70.1121 70.0862 88.523 47.3748 88.523Z" fill="white"/>
<path d="M47.3748 1C21.7478 1 0.973145 21.7745 0.973145 47.4011C0.973145 73.0275 21.7478 93.8017 47.3748 93.8017C73.0018 93.8017 93.7765 73.0275 93.7765 47.4011C93.7765 21.7745 73.0018 1 47.3748 1ZM47.3748 88.523C24.663 88.523 6.2519 70.1121 6.2519 47.4009C6.2519 24.6899 24.663 6.27875 47.3748 6.27875C70.0862 6.27875 88.4975 24.6899 88.4975 47.4009C88.4975 70.1121 70.0862 88.523 47.3748 88.523Z" stroke="#EAEAEA" stroke-width="0.198233" stroke-miterlimit="10"/>
<path fill-rule="evenodd" clip-rule="evenodd" d="M47.8695 47.479L77.3595 32.5386C85.4561 48.9999 79.1212 68.8028 63.08 76.9297C56.1087 80.4613 48.4444 81.2114 41.3088 79.5958C40.6903 79.4556 47.8695 47.479 47.8695 47.479Z" fill="url(#paint0_linear_976_3207)"/>
<path fill-rule="evenodd" clip-rule="evenodd" d="M48.1641 46.9985L23.8617 47.9938C23.469 34.5024 33.7571 23.1811 46.9767 22.6397C52.7215 22.4046 58.0809 24.2431 62.3642 27.5036C62.7353 27.7863 48.1641 46.9985 48.1641 46.9985Z" fill="url(#paint1_linear_976_3207)"/>
<path fill-rule="evenodd" clip-rule="evenodd" d="M47.5534 48.0114L30.8435 78.6525C13.9513 69.1797 7.6112 48.1644 16.7008 31.4967C20.651 24.2535 26.8686 19.015 34.0416 16.1501C34.6633 15.9023 47.5534 48.0114 47.5534 48.0114Z" fill="url(#paint2_linear_976_3207)"/>
<g opacity="0.15">
<path fill-rule="evenodd" clip-rule="evenodd" d="M63.0823 28.124C62.1365 27.4276 60.805 27.6288 60.1084 28.5758L48.7607 43.9888C48.0641 44.9346 48.2659 46.2655 49.2123 46.9629C50.1581 47.6593 51.4898 47.4565 52.1856 46.5117L63.5333 31.0969C64.2306 30.1506 64.0281 28.8206 63.0823 28.124ZM47.6431 49.1629C46.4896 48.9385 45.3733 49.6912 45.1491 50.8443L39.866 77.9829C39.6416 79.1358 40.3943 80.2522 41.5462 80.4766C42.6987 80.7003 43.8164 79.9491 44.0406 78.7958L49.3237 51.6575C49.5479 50.504 48.7954 49.3875 47.6431 49.1629Z" fill="black"/>
</g>
<path fill-rule="evenodd" clip-rule="evenodd" d="M62.4875 27.5293C61.5417 26.8329 60.2102 27.0341 59.5136 27.9811L48.1659 43.3941C47.4694 44.3399 47.6712 45.6708 48.6175 46.3682C49.5633 47.0646 50.895 46.8618 51.5908 45.917L62.9385 30.5022C63.6359 29.5558 63.4333 28.2259 62.4875 27.5293ZM47.0481 48.5682C45.8948 48.3438 44.7783 49.0965 44.5541 50.2496L39.271 77.3881C39.0466 78.5411 39.7993 79.6575 40.9512 79.8819C42.1038 80.1055 43.2214 79.3544 43.4456 78.2011L48.7287 51.0628C48.9531 49.9092 48.2006 48.7928 47.0481 48.5682Z" fill="white"/>
<g opacity="0.15">
<path d="M47.7712 47.7972L34.4307 15.7134" stroke="black" stroke-width="0.5947" stroke-miterlimit="10" stroke-linecap="round" stroke-linejoin="round"/>
</g>
<path d="M47.3747 47.4008L34.0342 15.3169" stroke="white" stroke-width="0.5947" stroke-miterlimit="10" stroke-linecap="round" stroke-linejoin="round"/>
<g opacity="0.15">
<path fill-rule="evenodd" clip-rule="evenodd" d="M48.1675 42.8865C51.0983 42.8865 53.4744 45.2629 53.4744 48.1938C53.4744 51.1247 51.0983 53.5011 48.1675 53.5011C45.2366 53.5011 42.8604 51.1247 42.8604 48.1938C42.8604 45.2629 45.2366 42.8865 48.1675 42.8865Z" fill="black"/>
</g>
<path fill-rule="evenodd" clip-rule="evenodd" d="M47.3745 42.0935C50.3056 42.0935 52.6816 44.4699 52.6816 47.4006C52.6816 50.3317 50.3056 52.7081 47.3745 52.7081C44.4437 52.7081 42.0676 50.3317 42.0676 47.4006C42.0674 44.4699 44.4437 42.0935 47.3745 42.0935Z" fill="#F25AC7"/>
<path opacity="0.8" fill-rule="evenodd" clip-rule="evenodd" d="M35.4412 17.1816C35.1101 17.457 34.9834 20.489 34.9834 20.489C34.9834 20.489 34.7628 17.4149 34.4401 17.187C34.1176 16.9586 32.1045 16.7164 32.1045 16.7164C32.1045 16.7164 34.2674 16.4795 34.5017 16.2035C34.7364 15.9274 34.9834 12.311 34.9834 12.311C34.9834 12.311 35.2227 15.8426 35.4618 16.2257C35.701 16.6087 38.7988 16.7164 38.7988 16.7164C38.7988 16.7164 35.7724 16.9059 35.4412 17.1816Z" fill="white"/>
<path opacity="0.8" fill-rule="evenodd" clip-rule="evenodd" d="M44.1599 79.9091C43.8251 80.1874 43.697 83.2531 43.697 83.2531C43.697 83.2531 43.474 80.145 43.1477 79.9142C42.8216 79.6835 40.7864 79.4387 40.7864 79.4387C40.7864 79.4387 42.9731 79.1992 43.2102 78.9201C43.4473 78.641 43.6972 74.9844 43.6972 74.9844C43.6972 74.9844 43.9391 78.5551 44.1811 78.9427C44.423 79.3296 47.5551 79.4387 47.5551 79.4387C47.5551 79.4387 44.4949 79.6304 44.1599 79.9091Z" fill="white"/>
<path opacity="0.5" fill-rule="evenodd" clip-rule="evenodd" d="M74.1512 69.6512C73.8661 69.8879 73.7575 72.4957 73.7575 72.4957C73.7575 72.4957 73.5678 69.852 73.2902 69.6558C73.0129 69.4595 71.2817 69.2512 71.2817 69.2512C71.2817 69.2512 73.1416 69.0474 73.3432 68.8101C73.545 68.5726 73.7575 65.4622 73.7575 65.4622C73.7575 65.4622 73.9632 68.4995 74.1688 68.829C74.3744 69.1584 77.0388 69.251 77.0388 69.251C77.0388 69.251 74.4358 69.4141 74.1512 69.6512Z" fill="white"/>
<defs>
<linearGradient id="paint0_linear_976_3207" x1="77.1607" y1="32.406" x2="44.3492" y2="81.6245" gradientUnits="userSpaceOnUse">
<stop stop-color="#FF9FF2" stop-opacity="0"/>
<stop offset="0.1885" stop-color="#FFA4F2" stop-opacity="0.1131"/>
<stop offset="0.4142" stop-color="#FFB3F0" stop-opacity="0.2485"/>
<stop offset="0.6589" stop-color="#FFCBEF" stop-opacity="0.3953"/>
<stop offset="0.9154" stop-color="#FFECEC" stop-opacity="0.5492"/>
<stop offset="1" stop-color="#FFF9EB" stop-opacity="0.6"/>
</linearGradient>
<linearGradient id="paint1_linear_976_3207" x1="23.9543" y1="48.1429" x2="60.9501" y2="25.2198" gradientUnits="userSpaceOnUse">
<stop stop-color="#FF9FF2" stop-opacity="0"/>
<stop offset="0.1885" stop-color="#FFA4F2" stop-opacity="0.1131"/>
<stop offset="0.4142" stop-color="#FFB3F0" stop-opacity="0.2485"/>
<stop offset="0.6589" stop-color="#FFCBEF" stop-opacity="0.3953"/>
<stop offset="0.9154" stop-color="#FFECEC" stop-opacity="0.5492"/>
<stop offset="1" stop-color="#FFF9EB" stop-opacity="0.6"/>
</linearGradient>
<linearGradient id="paint2_linear_976_3207" x1="31.0964" y1="78.6492" x2="30.1843" y2="16.2057" gradientUnits="userSpaceOnUse">
<stop stop-color="#FF9FF2" stop-opacity="0"/>
<stop offset="0.1885" stop-color="#FFA4F2" stop-opacity="0.1131"/>
<stop offset="0.4142" stop-color="#FFB3F0" stop-opacity="0.2485"/>
<stop offset="0.6589" stop-color="#FFCBEF" stop-opacity="0.3953"/>
<stop offset="0.9154" stop-color="#FFECEC" stop-opacity="0.5492"/>
<stop offset="1" stop-color="#FFF9EB" stop-opacity="0.6"/>
</linearGradient>
</defs>
</svg>

<svg width="95" height="95" fill="none" xmlns="http://www.w3.org/2000/svg"><path opacity=".15" fill-rule="evenodd" clip-rule="evenodd" d="M48.549 2.188c25.627 0 46.402 20.774 46.402 46.4 0 25.627-20.775 46.401-46.402 46.401-25.627 0-46.402-20.774-46.402-46.4 0-25.627 20.775-46.401 46.402-46.401Z" fill="#000"/><path fill-rule="evenodd" clip-rule="evenodd" d="M47.553 5.44c23.175 0 41.963 18.787 41.963 41.961 0 23.175-18.788 41.961-41.963 41.961S5.591 70.576 5.591 47.402C5.59 24.226 24.378 5.44 47.553 5.44Z" fill="#812265"/><path opacity=".1" fill-rule="evenodd" clip-rule="evenodd" d="M49.756 7.689c-22.881 0-41.43 18.548-41.43 41.428 0 13.47 6.434 25.435 16.392 33.002C13.22 74.634 5.613 61.677 5.613 46.937c0-23.175 18.787-41.962 41.963-41.962 14.741 0 27.699 7.608 35.183 19.105C75.193 14.122 63.228 7.69 49.756 7.69Z" fill="#fff"/><path fill-rule="evenodd" clip-rule="evenodd" d="M47.375 1C21.748 1 .973 21.774.973 47.401c0 25.627 20.775 46.4 46.402 46.4 25.627 0 46.401-20.773 46.401-46.4S73.002 1 47.375 1Zm0 87.523c-22.712 0-41.123-18.41-41.123-41.122 0-22.711 18.411-41.122 41.123-41.122 22.711 0 41.123 18.41 41.123 41.122 0 22.711-18.412 41.122-41.123 41.122Z" fill="#fff"/><path d="M47.375 1C21.748 1 .973 21.774.973 47.401c0 25.627 20.775 46.4 46.402 46.4 25.627 0 46.401-20.773 46.401-46.4S73.002 1 47.375 1Zm0 87.523c-22.712 0-41.123-18.41-41.123-41.122 0-22.711 18.411-41.122 41.123-41.122 22.711 0 41.123 18.41 41.123 41.122 0 22.711-18.412 41.122-41.123 41.122Z" stroke="#EAEAEA" stroke-width=".198" stroke-miterlimit="10"/><path fill-rule="evenodd" clip-rule="evenodd" d="m47.87 47.479 29.49-14.94c8.096 16.46 1.761 36.264-14.28 44.39-6.971 3.532-14.636 4.282-21.771 2.667-.619-.14 6.56-32.117 6.56-32.117Z" fill="url(#a)"/><path fill-rule="evenodd" clip-rule="evenodd" d="m48.164 46.998-24.302.996c-.393-13.492 9.895-24.813 23.115-25.354 5.745-.235 11.104 1.603 15.387 4.864.371.282-14.2 19.494-14.2 19.494Z" fill="url(#b)"/><path fill-rule="evenodd" clip-rule="evenodd" d="m47.553 48.011-16.71 30.642C13.951 69.18 7.611 48.163 16.701 31.497c3.95-7.244 10.168-12.482 17.34-15.347.622-.248 13.512 31.861 13.512 31.861Z" fill="url(#c)"/><path fill-rule="evenodd" clip-rule="evenodd" d="M63.082 28.124a2.126 2.126 0 0 0-2.974.452L48.761 43.989a2.127 2.127 0 0 0 3.425 2.523l11.347-15.415a2.125 2.125 0 0 0-.45-2.973ZM47.643 49.163a2.126 2.126 0 0 0-2.494 1.681l-5.283 27.139a2.127 2.127 0 0 0 4.175.813l5.283-27.139a2.127 2.127 0 0 0-1.68-2.494Z" fill="#000" opacity=".15"/><path fill-rule="evenodd" clip-rule="evenodd" d="M62.487 27.53a2.126 2.126 0 0 0-2.973.451L48.166 43.394a2.127 2.127 0 0 0 3.425 2.523l11.347-15.415a2.125 2.125 0 0 0-.45-2.973ZM47.048 48.567a2.127 2.127 0 0 0-2.494 1.682l-5.283 27.138a2.127 2.127 0 0 0 4.175.813l5.283-27.138a2.127 2.127 0 0 0-1.68-2.495Z" fill="#fff"/><path d="m47.771 47.797-13.34-32.084" stroke="#000" stroke-width=".595" stroke-miterlimit="10" stroke-linecap="round" stroke-linejoin="round" opacity=".15"/><path d="m47.375 47.4-13.34-32.083" stroke="#fff" stroke-width=".595" stroke-miterlimit="10" stroke-linecap="round" stroke-linejoin="round"/><path fill-rule="evenodd" clip-rule="evenodd" d="M48.167 42.886a5.307 5.307 0 1 1 0 10.615 5.307 5.307 0 0 1 0-10.614Z" fill="#000" opacity=".15"/><path fill-rule="evenodd" clip-rule="evenodd" d="M47.374 42.093a5.307 5.307 0 1 1 0 10.615 5.307 5.307 0 0 1 0-10.614Z" fill="#F25AC7"/><path opacity=".8" fill-rule="evenodd" clip-rule="evenodd" d="M35.441 17.182c-.33.275-.458 3.307-.458 3.307s-.22-3.074-.543-3.302c-.322-.228-2.335-.47-2.335-.47s2.162-.237 2.397-.514c.234-.276.481-3.892.481-3.892s.24 3.532.479 3.915 3.337.49 3.337.49-3.027.19-3.358.466ZM44.16 79.91c-.335.277-.463 3.343-.463 3.343s-.223-3.108-.55-3.339c-.325-.23-2.36-.475-2.36-.475s2.186-.24 2.423-.519c.237-.279.487-3.936.487-3.936s.242 3.571.484 3.959c.242.387 3.374.496 3.374.496s-3.06.191-3.395.47Z" fill="#fff"/><path opacity=".5" fill-rule="evenodd" clip-rule="evenodd" d="M74.151 69.651c-.285.237-.394 2.845-.394 2.845s-.19-2.644-.467-2.84c-.277-.197-2.008-.405-2.008-.405s1.86-.204 2.061-.44c.202-.238.414-3.349.414-3.349s.206 3.037.412 3.367c.205.33 2.87.422 2.87.422s-2.603.163-2.888.4Z" fill="#fff"/><defs><linearGradient id="a" x1="77.161" y1="32.406" x2="44.349" y2="81.624" gradientUnits="userSpaceOnUse"><stop stop-color="#FF9FF2" stop-opacity="0"/><stop offset=".189" stop-color="#FFA4F2" stop-opacity=".113"/><stop offset=".414" stop-color="#FFB3F0" stop-opacity=".248"/><stop offset=".659" stop-color="#FFCBEF" stop-opacity=".395"/><stop offset=".915" stop-color="#FFECEC" stop-opacity=".549"/><stop offset="1" stop-color="#FFF9EB" stop-opacity=".6"/></linearGradient><linearGradient id="b" x1="23.954" y1="48.143" x2="60.95" y2="25.22" gradientUnits="userSpaceOnUse"><stop stop-color="#FF9FF2" stop-opacity="0"/><stop offset=".189" stop-color="#FFA4F2" stop-opacity=".113"/><stop offset=".414" stop-color="#FFB3F0" stop-opacity=".248"/><stop offset=".659" stop-color="#FFCBEF" stop-opacity=".395"/><stop offset=".915" stop-color="#FFECEC" stop-opacity=".549"/><stop offset="1" stop-color="#FFF9EB" stop-opacity=".6"/></linearGradient><linearGradient id="c" x1="31.096" y1="78.649" x2="30.184" y2="16.206" gradientUnits="userSpaceOnUse"><stop stop-color="#FF9FF2" stop-opacity="0"/><stop offset=".189" stop-color="#FFA4F2" stop-opacity=".113"/><stop offset=".414" stop-color="#FFB3F0" stop-opacity=".248"/><stop offset=".659" stop-color="#FFCBEF" stop-opacity=".395"/><stop offset=".915" stop-color="#FFECEC" stop-opacity=".549"/><stop offset="1" stop-color="#FFF9EB" stop-opacity=".6"/></linearGradient></defs></svg>
